X:25
T: Jim Keeffe's
S: "Johnny O'Leary of Sliabh Luachra" (#184)
Z: B.Black
L: 1/8
M: 2/4
Q: 300
R: polka
K: A
ea c/d/c/B/|Ac EF/E/|cB Bc/e/|fe ce|
a2 c/d/c/B/|Ac EF/E/|cB Bc/B/|A2 A2 :|
c2 Bc/e/|fe ce|ce/c/ Bc/e/|fe ce|
a2 c/d/c/B/|Ac EF/E/|cB c/d/c/B/|A2 A2 :|
